!!!!SEGMENT: Mou3011-Le_grant_desir_daymer_my_tient_II.krn
!!!id: Mou3011
!!!AGN: Secular work
!!!voices: 3
!!!COM: Jean Mouton
!!!OTL: Le grant desir d'aymer my tient II
**kern	**kern	**kern
*part3	*part2	*part1
*staff3	*staff2	*staff1
*I"Bassus	*I"Tenor	*I"Superius
*I'B	*I'T	*I'S
*clefF4	*clefGv2	*clefGv2
*k[]	*k[]	*k[]
*M2/1	*M2/1	*M2/1
*met(C|)	*met(C|)	*met(C|)
=1	=1	=1
1AA	0r	0r
2AA	.	.
2AA	.	.
=2	=2	=2
2.AA	0r	1A
4BB	.	.
4C	.	2A
4AA	.	.
[2D	.	2A
=3	=3	=3
4D]	0r	1.A
4E	.	.
4F	.	.
4G	.	.
2A	.	.
[2G	.	2B-i
=4	=4	=4
4G]	0r	2.A
4F	.	.
1F	.	.
.	.	8GL
.	.	8FJ
.	.	2G
2E	.	2G
=5	=5	=5
1F	1A	1F
2D	2A	2r
[2F	2A	4D
.	.	4E
=6	=6	=6
4F]	1.A	4F
4E	.	4G
2D	.	4A
.	.	4B
2C	.	2c
2BB-i	2B-X	[2d
=7	=7	=7
1D	2A	4d]
.	.	4e
.	4G	2.f
.	4F	.
1C	2G	.
.	.	8eL
.	.	8dJ
.	2G	2e
=8	=8	=8
2r	1F	1.f
2.D	.	.
.	2r	.
4C	.	.
4BB	2F	[2d
4AA	.	.
=9	=9	=9
2BB	1.G	2d]
1C	.	2.e
.	.	4d
2AA	2A	4c
.	.	4B
=10	=10	=10
2.D	2F	2A
.	4E	1d
8CL	4D	.
8BBJ	.	.
1AA	1E	.
.	.	2c
=11	=11	=11
2r	0D	2B
2D	.	1A
1F	.	.
.	.	4G
.	.	4F
=12	=12	=12
1G	1r	1E
2.A	2r	1D
.	2D	.
4G	.	.
=13	=13	=13
4F	1F	2r
4E	.	.
2D	.	2A
2E	1G	1c
2E	.	.
=14	=14	=14
1D	1.A	1d
1r	.	[1e
.	2A	.
=15	=15	=15
0r	2A	2e]
.	4G	2e
.	4F	.
.	2G	2e
.	2G	4d
.	.	4c
=16	=16	=16
2r	0F	2d
2D	.	2d
1F	.	2c
.	.	[2d
=17	=17	=17
1G	0r	2d]
.	.	2.e
[1A	.	.
.	.	4d
.	.	4c
.	.	4B
=18	=18	=18
2A]	0r	4c
.	.	4B
2A	.	4A
.	.	4G
2A	.	2F
4G	.	[2f
4F	.	.
=19	=19	=19
2G	1r	2f]
2G	.	2e
1F	2r	2f
.	2A	[2F
=20	=20	=20
2r	1.c	4F]
.	.	4G
1F	.	1A
4E	2d	4G
4D	.	4F
=21	=21	=21
2E	1.c	2G
2.F	.	1A
4G	.	.
4A	2c	[2F
4B	.	.
=22	=22	=22
2c	1A	4F]
.	.	4G
2.F	.	4A
.	.	4B
.	1A	2c
4G	.	.
4A	.	[2F
4B	.	.
=23	=23	=23
4c	0F	4F]
4B	.	4G
4A	.	4A
4G	.	4B
2F	.	2c
2D	.	2d
=24	=24	=24
2C	0G	2e
2BB	.	1f
1C	.	.
.	.	2e
=25	=25	=25
2FF	1A	2f
1C	.	2.e
.	2G	.
.	.	4d
2AA	2A	4c
.	.	4B
=26	=26	=26
1D	2F	2A
.	4E	1d
.	4D	.
1AA	1E	.
.	.	2c
=27	=27	=27
2r	1D	1f
2A	.	.
2.c	2r	2.e
.	2A	.
4B	.	4d
=28	=28	=28
4A	1.c	4c
4G	.	4B
2F	.	2A
2E	.	2G
2D	2d	[2F
=29	=29	=29
1A	1.c	4F]
.	.	4G
.	.	4A
.	.	4B
2.AA	.	4c
.	.	4d
.	2c	[2e
4BB	.	.
=30	=30	=30
2C	1A	4e]
.	.	4c
2D	.	2f
2C	1A	2e
[2D	.	[2f
=31	=31	=31
2D]	0F	2f]
4C	.	4e
4BB	.	4d
2AA	.	2c
[2BB	.	[2d
=32	=32	=32
4BB]	0G	2d]
4GG	.	.
2C	.	2e
2BB	.	2d
2C	.	[2e
=33	=33	=33
2C	1A	2e]
4BB	.	4d
4AA	.	4c
2BB	2G	2d
2AA	2A	2c
=34	=34	=34
2D	2F	4B
.	.	4A
2BB	4E	1d
.	4D	.
1AA	1E	.
.	.	2c#i
=35	=35	=35
0Dl	0Dl	0dl
==	==	==
*-	*-	*-
!!!system-decoration: s1,s2,s3
!!!RDF**kern: i = editorial accidental
!!!RDF**kern: l = terminal long
!!!ENC: Max Blistain
!!!END: 2026/04/01
!!!EED: Benjamin Ory
!!!EEV: 2026/05/18
!!!YEC: Copyright 2026 Benjamin Ory, All Rights Reserved
!!!ONB: Translated from MusicXML on 2026/05/18
!!muse2ps: C^@{COM}^i2I150v90,90,120c120z18l2770t130
